X: 1
T: Aunt Lisle's An Dro #2  [Am]
C: Gary Chapin
Z: 2009 John Chambers <jc:trillian.mit.edu>
S: PDF MS of unknown origin from Steve Gruverman
M: 2/2
L: 1/8
K: Ador
|: "Am"A2A2 "G"d4 | "Am"cdec "G"d4 \
|  "Am"c2B2 "F"c2A2 | "G"B2G2 "Am"A4 :|
[| "G"g2g2 "D"fed2 | "Am"c2e2 "G"d4 \
| "Am"c2e2 "G"d4 | "D"f2e2 "G"d4 ||
|| "G"g2g2 "D"fed2 | "Am"c2e2 "G"d4 \
| "Am"c2B2 "F"c2A2 | "G"B2G2 "Am"A4 |]
